X:2
T:Reel 2
M:4/4
K:Gmaj
L:1/8
c|Bddc BGGB|ABcd eAAc|Bddf egdB|cedc BGGf| (3Bdd ge dcBG|ABcd eAAf|gd (3ddd egdB|cedc BGG|A|Bggd edcB|cAag fddc|BGDG BcdB|cedc BGGA|Bdgd eded|cBAG FAAc|BGGB cedc|Bdef gGG|
